!!!COM: Gustav Mahler
!!!CNT: Deutsch
!!!TXO: Deutsch
!!!OTL: "Verlorne Mu2h"
!!!LYR: Des Knaben Wunderhorn
!!!OPR: Des Knaben Wunderhorn, Part 1
!!!ENC: O'Neal Douglas
!!!YOR: CD Sheet Music: Late Romantic German Lieder
!!!YOR: CD Sheet Music, LLC, 2001
!!!ODT: 1892/
!!NB: Vocal melody and text encoded.
**kern	**text
*staff1	*staff1
*clefG2	*
*k[f#c#g#]	*
*M3/8	*
*MM105	*
8r	.
=1	=1
4.r	.
=2	=2
4.r	.
=3	=3
4.r	.
=4	=4
4.r	.
=5	=5
4.r	.
=6	=6
4.r	.
=7	=7
{(8c#	{Bu2b-
8e)	|
16cc#	-le,
16r	.
=8	=8
4.ccn}	wir}
=9	=9
4.r	.
=10	=10
4.r	.
=11	=11
{8ee	{Bu2b-
16ccn	-le,
16dd	wir
16ee	wol-
16cc	-len
=12	=12
16b	au-
16ccn	-sse
8b	ge-
8a	-he!
=13	=13
16b	Au-
16ccn	-sse
8b	ge-
8a}	-he!}
=14	=14
4.r	.
=15	=15
{8.e	{Wol-
16a	-len
8ee	wir?
=16	=16
8.e	Wol-
16a	-len
8ee	wir?
=17	=17
8ee	Un-
(16ccn	-se-
16dd)	|
(16ee	-re
16cc)	|
=18	=18
(16b	La2m-
16ee)	|
8ggn	-mer
(16ff#	be-
16ee)	|
=19	=19
(16ff#	-se-
16ggn	|
8ff#)	|
8ee}	-he?}
=20	=20
4.r	.
=21	=21
4.r	.
=22	=22
4.r	.
=23	=23
4.r	.
=24	=24
{(ff#q	{Gelt!
4.ee)	|
=25	=25
(ff#q	Komm'!
4.ee)	|
=26	=26
(ff#q	Komm',
8ee)	|
8r	.
8dd	lieb's
=27	=27
8.dd	Bu2-
16cc#	-ber-
8b	-le,
=28	=28
(8b	komm',
8cc#)	|
8e	ich
=29	=29
4.f#	bitt'!
=30	=30
8.d	Na2r-
16e	ris
8f#	-ches
=31	=31
8.a	Din-
16g#	-ter-
16f#	-le,
16e	ich
=32	=32
8.c#	geh
16cc#	dir
8e	halt
=33	=33
4f#}	nit!}
8r	.
=34	=34
4.r	.
=35	=35
4.r	.
=36	=36
4.r	.
=37	=37
4.r	.
=38	=38
4.r	.
=39	=39
4.r	.
=40	=40
{(8c#	{Willst
8e)	|
8cc#	viel-
=41	=41
4.ee}	-leicht}
=42	=42
4.r	.
=43	=43
4.r	.
=44	=44
{(8ee	{willst
16ccn)	|
16dd	viel-
16ee	-leicht
16cc	a
=45	=45
16b	Bis-
16ccn	-sel
8b	nas-
8a	-che?
=46	=46
16b	Bis-
16ccn	-sel
8b	nas-
8a}	-che?}
=47	=47
4.r	.
=48	=48
{8.gn	{Willst
16ccn	viel-
8ggn	-leicht?
=49	=49
8.gn	Willst
16ccn	viel-
8ggn	-leicht?
=50	=50
8.ee	Hol'
16dd#	dir
16ee	was
16ccn	aus
=51	=51
8b	mei-
8e	-ner
8e	Tasch!
=52	=52
4.r	.
=53	=53
8ccn	Hol'
8e	dir
8e	was!
=54	=54
8ee	Hol'
8e	dir
8e}	was!}
=55	=55
4.r	.
=56	=56
4.r	.
=57	=57
4.r	.
=58	=58
4.r	.
=59	=59
{(ddq	{Hol'!
4.ccn)	|
=60	=60
(ddq	|
4.ccn)	Hol'!
=61	=61
4ccn	Hol',
8b	liebs
=62	=62
8.b	Bu2-
16a	-ber-
8a	-le,
=63	=63
4a	hol',
8gn	ich
=64	=64
(4gn	bitt'!
8fn)}	|}
=65	=65
{8ccn	{Na2r-
8b	-ri-
8a	-sches
=66	=66
8cc#	Din-
16a	-ter-
16f#	-le,
8e	ich
=67	=67
8b	nasch
(16g#	dir
16f#)	|
8e	holt
=68	=68
4.ee	nit!
=69	=69
[4.dd	nit!
=70	=70
4.dd_	|
=71	=71
8dd]}	|}
8r	.
8r	.
=72	=72
4.r	.
=73	=73
4.r	.
=74	=74
{(8c#	{Gelt',
8e)	|
8cc#	ich
=75	=75
4.ee}	soll}
=76	=76
4.r	.
=77	=77
4.r	.
=78	=78
{(8ccn	{gelt',
16a)	.
16b-	ich
16cc	soll
16a	mein
=79	=79
16gn	Herz
16a	dir
8g	schen-
8fn	-ke.
=80	=80
16gn	Herz
16a	dir
8g	schen-
8fn}	-ke!?}
=81	=81
4.r	.
=82	=82
{8.cn	{Gelt,
16fn	ich
8ccn	soll?
=83	=83
8.c#	Gelt,
16fn	ich
8ccn	soll?
=84	=84
(8ccn	Im-
16b)	|
16cc	-mer
16b	wollst
16a	an
=85	=85
(16gn	mich
16b	|
16ee	|
16ggn)	|
(16ff#	ge-
16ee)	|
=86	=86
(16ff#	den
16ggn	|
8ff#)	|
8ee}	-ke!?}
=87	=87
4.r	.
=88	=88
4.r	.
=89	=89
4.r	.
=90	=90
{4ee	{Im-
8dd	-mer!?
=91	=91
4.r	.
=92	=92
4ff#	Im-
8ee	-mer!?
=93	=93
4ff#	Im-
8ee}	-mer!?}
=94	=94
4.r	.
=95	=95
4.r	.
=96	=96
{(ggnq	{Nimm's!
4.ff#)	|
=97	=97
(ff#q	|
4.ee#)	Nimm's!
=98	=98
8ee	Nimm's!
8r	.
8dd	Lieb's
=99	=99
8.dd	Bu2-
16ccn	-ber-
8cc	-le!
=100	=100
8ccn	Nimm's,
8r	.
8b-	ich
=101	=101
(4b-	bitt'!
8a)	|
=102	=102
8ccn	Na2r-
8b	-ri-
8a	-sches
=103	=103
8cc#	Din-
16a	-ter-
16f#	-le,
8e	ich
=104	=104
8dd	mag
(16b	es
16g#)	|
8e	halt
=105	=105
4.ff#	nit!
=106	=106
[4.gg#	Nit!
=107	=107
4.gg#_	|
=108	=108
8gg#]}	|}
8r	.
8r	.
=109	=109
4.r	.
=110	=110
4.r	.
=111	=111
4.r	.
=112	=112
4.r	.
==	==
*-	*-
